src/helpers/heroicons/solid/calendar.svg

<svg width="24" height="24" viewBox="0 0 24 24" fill="none" xmlns="http://www.w3.org/2000/svg">
<path fill-rule="evenodd" clip-rule="evenodd" d="M6.75 2.25C7.16421 2.25 7.5 2.58579 7.5 3V4.5H16.5V3C16.5 2.58579 16.8358 2.25 17.25 2.25C17.6642 2.25 18 2.58579 18 3V4.5H18.75C20.4069 4.5 21.75 5.84315 21.75 7.5V18.75C21.75 20.4069 20.4069 21.75 18.75 21.75H5.25C3.59315 21.75 2.25 20.4069 2.25 18.75V7.5C2.25 5.84315 3.59315 4.5 5.25 4.5H6V3C6 2.58579 6.33579 2.25 6.75 2.25ZM20.25 11.25C20.25 10.4216 19.5784 9.75 18.75 9.75H5.25C4.42157 9.75 3.75 10.4216 3.75 11.25V18.75C3.75 19.5784 4.42157 20.25 5.25 20.25H18.75C19.5784 20.25 20.25 19.5784 20.25 18.75V11.25Z" />
</svg>

<svg xmlns="http://www.w3.org/2000/svg" viewBox="0 0 24 24" fill="currentColor" aria-hidden="true" data-slot="icon">
  <path fill-rule="evenodd" d="M6.75 2.25A.75.75 0 0 1 7.5 3v1.5h9V3A.75.75 0 0 1 18 3v1.5h.75a3 3 0 0 1 3 3v11.25a3 3 0 0 1-3 3H5.25a3 3 0 0 1-3-3V7.5a3 3 0 0 1 3-3H6V3a.75.75 0 0 1 .75-.75Zm13.5 9a1.5 1.5 0 0 0-1.5-1.5H5.25a1.5 1.5 0 0 0-1.5 1.5v7.5a1.5 1.5 0 0 0 1.5 1.5h13.5a1.5 1.5 0 0 0 1.5-1.5v-7.5Z" clip-rule="evenodd"/>
</svg>
